images/svg/location.svg

<svg width="44" height="44" viewBox="0 0 44 44" fill="none" xmlns="http://www.w3.org/2000/svg">
<g clip-path="url(#clip0_90_158)">
<path d="M22 35.3144L30.25 27.113C31.8815 25.4909 32.9925 23.4244 33.4426 21.1746C33.8926 18.9249 33.6615 16.593 32.7785 14.4738C31.8954 12.3546 30.4001 10.5433 28.4815 9.26895C26.563 7.9946 24.3074 7.31442 22 7.31442C19.6926 7.31442 17.437 7.9946 15.5185 9.26895C13.5999 10.5433 12.1046 12.3546 11.2215 14.4738C10.3385 16.593 10.1074 18.9249 10.5574 21.1746C11.0075 23.4244 12.1185 25.4909 13.75 27.113L22 35.3144ZM22 40L11.3933 29.4558C9.29557 27.3703 7.86698 24.7133 7.28821 21.8207C6.70945 18.9282 7.00651 15.9299 8.14183 13.2052C9.27715 10.4804 11.1997 8.15157 13.6665 6.51306C16.1332 4.87455 19.0333 4 22 4C24.9667 4 27.8668 4.87455 30.3335 6.51306C32.8003 8.15157 34.7228 10.4804 35.8582 13.2052C36.9935 15.9299 37.2906 18.9282 36.7118 21.8207C36.133 24.7133 34.7044 27.3703 32.6067 29.4558L22 40ZM22 22.2253C22.8841 22.2253 23.7319 21.8761 24.357 21.2547C24.9821 20.6333 25.3333 19.7904 25.3333 18.9116C25.3333 18.0327 24.9821 17.1899 24.357 16.5684C23.7319 15.947 22.8841 15.5979 22 15.5979C21.1159 15.5979 20.2681 15.947 19.643 16.5684C19.0179 17.1899 18.6667 18.0327 18.6667 18.9116C18.6667 19.7904 19.0179 20.6333 19.643 21.2547C20.2681 21.8761 21.1159 22.2253 22 22.2253ZM22 25.539C20.2319 25.539 18.5362 24.8407 17.286 23.5979C16.0357 22.355 15.3333 20.6693 15.3333 18.9116C15.3333 17.1539 16.0357 15.4681 17.286 14.2253C18.5362 12.9824 20.2319 12.2841 22 12.2841C23.7681 12.2841 25.4638 12.9824 26.714 14.2253C27.9643 15.4681 28.6667 17.1539 28.6667 18.9116C28.6667 20.6693 27.9643 22.355 26.714 23.5979C25.4638 24.8407 23.7681 25.539 22 25.539Z" fill="#A78667"/>
</g>
<defs>
<clipPath id="clip0_90_158">
<rect width="44" height="44" fill="white"/>
</clipPath>
</defs>
</svg>

<svg width="44" height="44" fill="none" xmlns="http://www.w3.org/2000/svg"><g clip-path="url(#a)"><path d="m22 35.314 8.25-8.201a11.577 11.577 0 0 0 3.193-5.938c.45-2.25.218-4.582-.664-6.701a11.613 11.613 0 0 0-4.298-5.205A11.716 11.716 0 0 0 22 7.314c-2.307 0-4.563.68-6.482 1.955a11.613 11.613 0 0 0-4.296 5.205 11.535 11.535 0 0 0-.665 6.7 11.577 11.577 0 0 0 3.193 5.939L22 35.314ZM22 40 11.393 29.456a14.885 14.885 0 0 1-4.105-7.635 14.83 14.83 0 0 1 .854-8.616 14.93 14.93 0 0 1 5.524-6.692A15.063 15.063 0 0 1 22 4c2.967 0 5.867.875 8.334 2.513a14.931 14.931 0 0 1 5.524 6.692 14.83 14.83 0 0 1 .854 8.616 14.886 14.886 0 0 1-4.105 7.635L22 40Zm0-17.775c.884 0 1.732-.349 2.357-.97a3.304 3.304 0 0 0 0-4.687 3.343 3.343 0 0 0-4.714 0 3.304 3.304 0 0 0 0 4.687c.625.621 1.473.97 2.357.97Zm0 3.314a6.687 6.687 0 0 1-4.714-1.941 6.608 6.608 0 0 1-1.953-4.686c0-1.758.703-3.444 1.953-4.687A6.687 6.687 0 0 1 22 12.285c1.768 0 3.464.697 4.714 1.94a6.607 6.607 0 0 1 1.953 4.687 6.608 6.608 0 0 1-1.953 4.686A6.687 6.687 0 0 1 22 25.539Z" fill="#A78667"/></g><defs><clipPath id="a"><path fill="#fff" d="M0 0h44v44H0z"/></clipPath></defs></svg>
